X:1
T:Fünf Gedichte für eine Frauenstimme (Wesendonck-Lieder)
T:Träume
T:5. Träume
T:Richard Wagner
T:Mathilde Wesendonck
T:Fünf Gedichte für eine Frauenstimme (Wesendonck-Lieder), WWV 91
T:OpenScore (CC0)
T:OpenScore (CC0)
T:OpenScore (CC0)
T:OpenScore (CC0)
T:OpenScore (CC0)
C:Richard Wagner
Z:Mathilde Wesendonck
Z:OpenScore (CC0)
%%score 1 { ( 2 4 6 ) | ( 3 5 ) }
L:1/8
Q:1/4=60
M:3/4
K:Ab
V:1 treble nm="Voice"
V:2 treble nm="Piano"
V:4 treble 
V:6 treble 
V:3 bass 
V:5 bass 
V:1
"^Sehr mässig bewegt, aber nie schleppend" z6 | z6 | z6 | z6 | z6 | z6 | z6 | z6 | z6 | z6 | z6 | %11
w: |||||||||||
 z6 | z6 | z6 | z6 | z6 | z2!p! (E3 A | c3/2 B/ A3 G | G6 | F2) z2 z2 | z2 (F3 B | _d3/2 c/ B3 A | %22
w: |||||Sag', welch|wun- der- ba- re|Träu-|me|hal- ten|mei- nen Sinn um-|
 A6 | =G2) z2 z2 | z2 (F3 A | d3/2 c/ =B3 G | _B6 | A2) z2 G G | _G3/2 G/ F3 E | =D2 F2 z2 | %30
w: fan-|\- gen,|dass sie|nicht wie lee- re|Schäu-|me sind in|ö- des Nichts ver-|gan- gen?|
!>(! (c6!>)! | B2) z2!p! A3/2 G/ | G3/2 F/ A3/2 G/ B3/2 A/ | c3/2 B/ d3 c | c2 B c d =d | %35
w: Träu-|me, die in|je- der Stun- de, je- dem|Ta- ge schö- ner|blüh'n, und mit ih- rer|
 f3/2 e/ _d3 c | c3 B c d | e4 B2 | c4 z2 |!p!!>(! d6!>)! | %40
w: Him- mels- kun- de|se- lig durch's Ge-|mü- te|ziehn?|Träu-|
 c2 z2[Q:1/4=65]"^(belebt)"!<(! =d =e!<)! |[Q:1/4=68]"^T" f3/2 =A/ =d3/2 c/ B A | %42
w: me, die wie|heh- re Strah- len in die|
 =A3/2 G/ B3/2 A/ c3/2 =B/ | =d3/2 c/ e3/2 d/ c3/2 _B/ | (B4 =A2) | %45
w: See- le sich ver- sen- ken,|dort ein e- wig Bild zu|ma- len:|
!p![Q:1/4=63]"^T" _A3/2 G/[Q:1/4=60]"^T" G3 =D | %46
w: All- ver- ges- sen,|
[Q:1/4=65]"^T" =d3/2"^(steigernd)"[Q:1/4=70]"^T" c/ c3 =D |!f![Q:1/4=60]"^a tempo"!>(! f6!>)! | %48
w: Ein- ge- den- ken!|Träu-|
 e2 z2!p![Q:1/4=65]"^(bewegt)" F G |[Q:1/4=70]"^T" B3/2[Q:1/4=75]"^T" A/ _G3/2 E/ F G | %50
w: me, wie wenn|Früh- lings- son- ne aus dem|
 A3/2 B/ c3 d | B2 =A B f3/2 e/ | d3/2 c/ _g3/2 e/ c3/2 B/ | %53
w: Schnee die Blü- ten|küsst, dass zu nie ge-|ahn- ter Won- ne sie der|
 A3/2"^(nachlassend)" =A/[Q:1/4=69]"^T" B3 F[Q:1/4=72]"^T"[Q:1/4=66]"^T" | (_A2 =G2) (F3/2 E/ | %55
w: neu- e Tag be-|\- grüsst, * dass sie|
 c>A E2 A3/2 c/ | (e3 =d) _d2) | %57
w: wach- * sen dass sie|blü- * hen,|
"^(immer  mehr  nachlassend)"[Q:1/4=63]"^T" c4[Q:1/4=61]"^T" G2[Q:1/4=62]"^T" | %58
w: träu- mend|
[Q:1/4=60]"^T" A3 B c3/2 d/ | e4- e z | (A4!<(! =A2 | B4 =B2!<)! |!>(! c4 =B2 | c4!>)! _c2) | %64
w: spen- den ih- ren|Duft, *|sanft an|dei- ner|Brust ver-|glü- hen,|
!pp! z2 (F2 B2 | z2 __B2 C2 | z2 D2 E2 | F6) | z6 | z6 | z6 | z6 | z6 | z6 | z6 | z6 | z6 | z6 | %78
w: und dann|sin- ken|in die|Gruft.|||||||||||
 z6 | z6 | z6 | z6 | z6 | z6 |] %84
w: ||||||
V:2
!pp! (.[CE]!>(!.[CE].[CE].[CE].[CE].[CE])!>)! |!pp! (.[CF]!>(!.[CF].[CF].[CF].[CF].[CF])!>)! | %2
!pp! (.[CA]!>(!.[CA].[CA].[CA].[CA].[CA])!>)! | (.[_CA_c]!<(!.[CAc].[CAc].[CAc] .[FAc].[FAc])!<)! | %4
 (e6 |!>(! d4)!>)! z2 |!pp! (e6 | d4) z2 |!p! (f6 | e4) z2 |!>(! (f6!>)! | e4) z2 | (F6 | E4) z2 | %14
!>(! (F6!>)! | E4) z2 |!pp! ([CE][CE][CE][CE][CE][CE] | [C=E][CE][CE][CE][CE][CE]) | (G6 | F4) z2 | %20
!pp! ([B,F][B,F][B,F][B,F][B,F][B,F] | [B,_G][B,G][B,G][B,G][B,G][B,G]) |!>(! (A6!>)! | =G4) z2 | %24
 ([CF][CF][CF][CF][CF][CF] | [DF][DF][DF][DF][=DG][DG]) |!>(! (_B6!>)! | A4 G2 | [C_G]2) z2 [CE]2 | %29
!<(! [B,=D][B,D][B,DF][B,DF][B,DA][B,DA]!<)! |!>(! (c6!>)! | B4!p! A>G) | (G>FA>GB>A | %33
"_cresc." c>B d3 c) | (c2 Bcd=d |!mf! f>e _d3 c) | (c3 B!p!cd) | %37
!p! (.[DBe].[DBe].[DBe].[DBe].[DB]) z |!pp! (.[G,CG].[G,CG].[G,CG].[G,CG].[G,CG].[G,CG]) | %39
!pp! (d6 |!<(! c4) (=d!<)!=e |!f! f>=A!>(!=d>c BA)!>)! |!p!!<(! (=A>GB>A c>=B) | %43
 (=d>c!<)!e>dc>_B) |"_dim." (B4 =A2) |"^riten."!pp! ([=B,-=D-_A]4"_cresc." [B,DG]2) | %46
"^accel." (=d>!<(!c) c3 z!<)! |!f! (f6 | e4-) e z |!p! [CE_GB][CEGB][CEGB][CEGB][CEGB][CEGB] | %50
"_cresc." [A,DFA][A,DFA][A,DFA][A,DFA][A,DFA][A,DFA] | %51
!p! [B,D_G][B,DG]"_cresc."[B,DG][B,DG][B,DG][B,DG] | %52
!f! [CE_GB][CEGB][CEGB][CEGB]"_dim."[CEGB][CEGB] | ([CEA][CE=A][CEB][CEB][B,=DA][B,DA] | %54
 [B,_DA][B,DA][B,D=G][B,DG][G,B,DF][G,B,DE]) |!p! ([A,CE]3 [A,C][A,CE][CEA] | %56
 [B,DGB]3 [B,E][B,DG][DGB]) |!p! ([CGc]6 | [FAf]6 | e6) |!p! (A4 =A2 |!<(! [DB]4 [=D=B]2!<)! | %62
!>(! [Ec]4 [=D=B]2 | [Ec]4!>)! [__E_c]2 |!p! [_DB]6 | [C__B]6 | [DA]4 [DB]2) |!pp! (e6 | d4) z2 | %69
!pp! (e6 | d4) z2 |!pp! (f6 | e4) z2 |!pp!!>(! (f6!>)! | e4) z2 |!p! (F6 | E4-) E z |!pp! (F6 | %78
 E4-) E z |!pp! (F6- | F4!pp! z2 | E6- |!ppp! E4 z2 | [A,C]2) z2 z2 |] %84
V:3
 (.[A,,E,].[A,,E,].[A,,E,].[A,,E,].[A,,E,].[A,,E,]) | %1
 (.[A,,E,].[A,,E,].[A,,E,].[A,,E,].[A,,E,].[A,,E,]) | %2
 (.[A,,_F,].[A,,F,].[A,,F,].[A,,F,].[A,,F,].[A,,F,]) | %3
 (.[A,,E,].[A,,E,].[A,,E,].[A,,E,] .[A,,=D,].[A,,D,]) | %4
"^dolcissimo" ([_D,F,][D,F,][D,F,][D,F,][D,F,][D,F,] | [D,F,][D,F,][D,F,][D,F,][D,F,][D,F,]) | %6
"^un poco cresc." ([D,=G,][D,G,][D,G,][D,G,][D,G,][D,G,] | [D,G,][D,G,][D,G,][D,G,][D,G,][D,G,]) | %8
 ([E,_G,][E,G,][E,G,][E,G,][E,G,][E,G,] | [E,_G,][E,G,][E,G,][E,G,][E,G,][E,G,]) | %10
 ([E,=G,][E,G,][E,G,][E,G,][E,G,][E,G,] | [E,G,][E,G,][E,G,][E,G,][E,G,][E,G,]) | (E,E,E,E,E,E, | %13
 E,E,E,E,E,E,) | (E,E,E,E,E,E, | E,E,E,E,E,E,) | ([A,,E,][A,,E,][A,,E,][A,,E,][A,,E,][A,,E,] | %17
 [A,,=E,][A,,E,][A,,E,][A,,E,][A,,E,][A,,E,]) | ([=A,,_E,][A,,E,][A,,E,][A,,E,][A,,E,][A,,E,] | %19
 [=A,,E,][A,,E,][A,,E,][A,,E,][A,,E,][A,,E,]) | ([B,,=D,][B,,D,][B,,D,][B,,D,][B,,D,][B,,D,] | %21
 [B,,_D,][B,,D,][B,,D,][B,,D,][B,,D,][B,,D,]) | ([C,=E,][C,E,][C,E,][C,E,][C,E,][C,E,] | %23
 [C,=E,][C,E,][C,E,][C,E,][C,E,][C,E,]) | ([A,,F,][A,,F,][A,,F,][A,,F,][A,,F,][A,,F,] | %25
 [A,,F,][A,,F,][A,,F,][A,,F,][G,,F,][G,,F,]) | [C,E,][C,E,][C,E,][C,E,][C,E,][C,E,] | %27
 [C,E,][C,E,][C,E,][C,E,][C,E,][C,E,] | [B,,E,]2 z2 [=A,,_G,]2 | %29
 [B,,F,][B,,F,][B,,F,][B,,F,][B,,F,][B,,F,] | %30
 [B,,F,A,][B,,F,A,][B,,F,A,][B,,F,A,][B,,F,A,][B,,F,A,] | %31
 [B,,F,A,][B,,F,A,][B,,F,A,][B,,F,A,] =D,D, | E, E,2 E,2 E, | z [F,B,][F,B,][F,B,][F,B,][F,B,] | %34
 [G,_D][G,D][G,D][G,D] [G,B,][G,B,] | z [A,C][A,C][A,C][G,B,][G,B,] | %36
"^dim." z [F,B,][F,B,][F,B,][F,B,][F,B,] | (.[E,B,].[E,B,].[E,B,].[E,B,].[E,B,]) z | %38
 (.[=E,,C,=E,].[E,,C,E,].[E,,C,E,].[E,,C,E,].[E,,C,E,].[E,,C,E,]) | %39
!ped! z [C,G,B,][C,G,B,][C,G,B,][C,G,B,][C,G,B,] | %40
 [C,G,B,][C,G,B,][C,G,B,][C,G,B,][C,G,B,][C,G,B,]!ped-up! | z [F,=A,][F,A,][F,A,] [C,^F,]([C,F,] | %42
 ^F,) G,2 G,2 _A, | z [G,C]2 [G,C]2 [G,_D] | CCCCCC | F,4 F,2 | F,3 [F,A,][F,A,][F,A,] | %47
!ped! z [E,G,B,D][E,G,B,D][E,G,B,D][E,G,B,D][E,G,B,D] | %48
 [E,G,B,D][E,G,B,D][E,G,B,D][E,G,B,D] [E,G,B,D]!ped-up! z | %49
 [A,,E,_G,][A,,E,G,][A,,E,G,][A,,E,G,][A,,E,G,][A,,E,G,] | %50
 [A,,D,F,][A,,D,F,][A,,D,F,][A,,D,F,][A,,D,F,][A,,D,F,] | %51
 [A,,D,_G,][A,,D,G,][A,,D,G,][A,,D,G,][A,,D,G,][A,,D,G,] | %52
 [A,,E,_G,][A,,E,G,][A,,E,G,][A,,E,G,][A,,E,G,][A,,E,G,] | %53
 [A,,_G,][A,,G,][A,,G,][A,,G,][F,,F,][F,,F,] | E,E,E,E,E,E, |"^dolce" E,,A,, C,4 | (E,,B,, E,4) | %57
!ped! z"^(weich)" ((G, [G,C]4))!ped-up! |!ped! z ((A, [A,D]4))!ped-up! | %59
!ped! z (B,- [B,E]4)!ped-up! | (_G,6 | F,2 _F,4 | E,2 _F,4 | E,2 _F,4) | (=F,6 | _G,6 | _F,4 E,2) | %67
 [D,=F,][D,F,][D,F,][D,F,][D,F,][D,F,] | [D,F,][D,F,][D,F,][D,F,][D,F,][D,F,] | %69
 [D,=G,][D,G,][D,G,][D,G,][D,G,][D,G,] | [D,G,][D,G,][D,G,][D,G,][D,G,][D,G,] | %71
 [E,_G,][E,G,][E,G,][E,G,][E,G,][E,G,] | [E,_G,][E,G,][E,G,][E,G,][E,G,][E,G,] | %73
 [E,=G,][E,G,][E,G,][E,G,][E,G,][E,G,] | [E,G,][E,G,][E,G,][E,G,][E,G,][E,G,] | E,E,E,E,E,E, | %76
 E,E,E,E, E, z | E,E,E,E,E,E, | E,E,E,E, E, z | E,E,E,E,E,E, | E,2 z2 z2 | E,E,E,E,E,E, | %82
 E,2 z2 z2 | [A,,E,]2 z2 z2 |] %84
V:4
 x6 | x6 | x6 | x6 | ([FA_c]!>(![FAc][FAc][FAc][FAc][FAc]!>)! | [FA_c][FAc][FAc][FAc][FAc][FAc]) | %6
 [_F=GB]!>(![FGB][FGB][FGB]!>)![FGB]!<(![FGB] | [_FGB][FGB][FGB][FGB][FGB][FGB]!<)! | %8
 [_GAc]!>(![GAc][GAc][GAc]!>)![GAc][GAc] | [_GAc][GAc][GAc][GAc][GAc][GAc] | %10
 ([=GBd][GBd][GBd][GBd][GBd][GBd] | [GBd][GBd][GBd][GBd][GBd]"_dim."[GBd]) | %12
 ([A,C]!>(![A,C][A,C][A,C]!>)![A,C][A,C] | [A,C][A,C][A,C][A,C][A,C][A,C]) | %14
 ([G,B,D][G,B,D][G,B,D][G,B,D][G,B,D][G,B,D] | [G,B,D][G,B,D][G,B,D][G,B,D][G,B,D][G,B,D]) | x6 | %17
 x6 | ([C_E][CE][CE][CE][CE][CE] | [CE][CE][CE][CE][CE][CE]) | x6 | x6 | %22
 ([B,=E][B,E][B,E][B,E][B,E][B,E] | [B,=E][B,E][B,E][B,E][B,E][B,E]) | x6 | x6 | %26
 [CE][CE][CE][CE][CE][CE] | [CE][CE][CE][CE][CE][CE] | x6 | x6 | [=DFA][DFA][DFA][DFA][DFA][DFA] | %31
 [=DFA][DFA][DFA][DFA] DD | (C2 _D2 E2) | FFFF [FA][FA] | [EG][EG][EG][EG][EG][EG] | %35
 z [EA][EA][EA]!>(![=EG][EG] | [DF][DF][DF][DF]!>)![DF][DF] | x6 | x6 | %39
 [=EGB][EGB]!>(![EGB][EGB][EGB][EGB]!>)! | [=EGB][EGB][EGB][EGB][EGB][EGB] | z FFF EE | %42
 =D2 E2 =F2 | z"_cresc." G2 G2 G | _EE!>(!EEEE!>)! | x6 | E3 [=DF][DF][DF] | %47
 [GB_d]!>(![GBd][GBd][GBd][GBd][GBd]!>)! | [EGBd][EGBd][EGBd][EGBd] [EGBd] x | x6 | x6 | x6 | x6 | %53
 x6 | x6 |[I:staff +1] E,3 E,[I:staff -1] x2 | x3[I:staff +1] G,[I:staff -1] x2 | x6 | x6 | D6 | %60
 [CE]6 | x6 | x6 | x6 | x6 | x6 | x4 G_G | [=F_c]!>(![Fc][Fc][Fc][Fc]!>)![Fc] | %68
 [F_c][Fc][Fc][Fc][Fc][Fc] | [_F=GB]!>(![FGB][FGB][FGB][FGB]!>)![FGB] | %70
 [_FGB][FGB][FGB][FGB][FGB][FGB] | [_GAc]!>(![GAc][GAc][GAc][GAc]!>)![GAc] | %72
 [_GAc][GAc][GAc][GAc][GAc][GAc] | [=GBd][GBd][GBd][GBd][GBd][GBd] | %74
 [GBd][GBd][GBd][GBd][GBd][GBd] | [A,C]!>(![A,C][A,C][A,C][A,C][A,C] | %76
 [A,C]!>)![A,C][A,C][A,C] [A,C] x | [G,B,D][G,B,D]!>(![G,B,D][G,B,D][G,B,D][G,B,D] | %78
 [G,B,D][G,B,D]!>)![G,B,D][G,B,D] [G,B,D] x | [A,C]!>(![A,C][A,C][A,C][A,C]!>)![A,C] | %80
 [A,C]2 z2 x2 | [A,C]!>(![A,C][A,C][A,C][A,C][A,C]!>)! | [A,C]2 z2 x2 | x6 |] %84
V:5
 x6 | x6 | x6 | x6 | A,,6- | A,,6 | A,,6- | A,,6 | A,,6- | A,,6 | A,,6- | A,,6 | A,,6- | A,,6 | %14
 A,,6- | A,,6 | x6 | x6 | x6 | x6 | x6 | x6 | x6 | x6 | x6 | x6 | x6 | x6 | x6 | x6 | x6 | %31
 x4 (B,,2 | A,,2 B,,2 C,2 | D,4 =D,2) | (E,4 _D,2 | (C,6) | D,4 B,,2 | G,,4- G,,) z | x6 | C,,6 | %40
 x6 | F,,2 =A,,4 | B,,2 C,2 =D,2 | E,4 =E,2 | F,6 | (F,,4 G,,2) | A,,4- A,, z | [E,,E,]6 | x6 | %49
 x6 | x6 | x6 | x6 | x6 | E,,6 | E,,6 | E,,6 | [E,,E,]6 | [E,,E,]6 | [E,,E,]6 | A,,6- | A,,6- | %62
 A,,6- | A,,6 | A,,6- | A,,6- | A,,6 | A,,6- | A,,6 | A,,6- | A,,6 | A,,6- | A,,6 | A,,6- | A,,6 | %75
 A,,6- | A,,6 | A,,6- | A,,6 | A,,6- | A,,2 x4 | A,,6- | A,,2 x4 | x6 |] %84
V:6
 x6 | x6 | x6 | x6 | x6 | x6 | x6 | x6 | x6 | x6 | x6 | x6 | x6 | x6 | x6 | x6 | x6 | x6 | x6 | %19
 x6 | x6 | x6 | x6 | x6 | x6 | x6 | x6 | x6 | x6 | x6 | x6 | x6 | x6 | x6 | x6 | x6 | x6 | x6 | %38
 x6 | x6 | x6 | x6 | x6 | x6 | x6 | x6 | x6 | x6 | x6 | x6 | x6 | x6 | x6 | x6 | x6 | x6 | x6 | %57
 x6 | x6 | (A4 G2) | x6 | x6 | x6 | x6 | x6 | x6 | x6 | x6 | x6 | x6 | x6 | x6 | x6 | x6 | x6 | %75
 x6 | x6 | x6 | x6 | x6 | x6 | x6 | x6 | x6 |] %84

